X:18693
T:Whisker,The. HSJJ.074
M:2/4
L:1/8
Q:240
S:HSJ Jackson,Wyresdale,Lancs.1823
R:Misc.
O:England
A:Lancashire
H:1823
Z:Chris Partington.
K:G
g|(dBG)g|ecAa|fdef|(a/g/f/e/) dg|dBGg|ecAa|fdef|g2z|!
|B/-c/|.d.d.d B/-c/|.d.d.dd|ecAF|G/F/G/A/ AB/c/|.d.d.d B/c/|.d.d.dd|ecAF
|G2z|]


